X:2524
T:Polska från Västergötland
T:Svenska Folkdansar H4 nr 4
O:Västergötland
B:Traditioner av Svenska Folkdansar Häfte 4, nr 4
R:Polska
Z:Nils L
M:3/4
U:w=wedge
U:t=tenuto
L:1/8
K:Am
wa2 (ef) (de) | wc2 (AB cd) | (ea) (ef) (de) | wc2 tA4 ::
c/ | (cB) wG2 (Bd) | (dc) wA2 Ac | (cB) wG2 Bd | wc2 tA3z/ :|
(:musicend:)
(:music:)
